X:1920
T:Bourrée droite du Morvan
C:Trad 2, 38
M:3/8
L:1/8
K:G
D|G/F/GA|GFG|A/B/cB|A2D|\
G/F/GA|GFG|A/B/AF|G2:|
|:B|d/c/BA|GFG|A/B/cB|A2B|\
d/c/BA|GFG|A/B/AF|G2:|


